symbolic/32x32/apps/taskbar.svg

<svg xmlns="http://www.w3.org/2000/svg" width="32" height="32" version="1">
 <path style="opacity:0.2" d="M 3.4003906,3 C 2.6247906,3 2,3.6247906 2,4.4003906 V 8.5996094 C 2,9.3752094 2.6247906,10 3.4003906,10 H 7.5996094 C 8.3752094,10 9,9.3752094 9,8.5996094 V 4.4003906 C 9,3.6247906 8.3752094,3 7.5996094,3 Z M 13.384766,3 C 12.617689,3 12,3.6247906 12,4.4003906 V 8.5996094 C 12,9.3752094 12.617689,10 13.384766,10 H 28.615234 C 29.382311,10 30,9.3752094 30,8.5996094 V 4.4003906 C 30,3.6247906 29.382311,3 28.615234,3 Z M 3.4003906,13 C 2.6247906,13 2,13.624791 2,14.400391 v 4.199218 C 2,19.375209 2.6247906,20 3.4003906,20 H 7.5996094 C 8.3752094,20 9,19.375209 9,18.599609 V 14.400391 C 9,13.624791 8.3752094,13 7.5996094,13 Z m 9.9843754,0 C 12.617689,13 12,13.624791 12,14.400391 v 4.199218 C 12,19.375209 12.617689,20 13.384766,20 H 28.615234 C 29.382311,20 30,19.375209 30,18.599609 V 14.400391 C 30,13.624791 29.382311,13 28.615234,13 Z M 3.4003906,23 C 2.6247906,23 2,23.624791 2,24.400391 v 4.199218 C 2,29.375209 2.6247906,30 3.4003906,30 H 7.5996094 C 8.3752094,30 9,29.375209 9,28.599609 V 24.400391 C 9,23.624791 8.3752094,23 7.5996094,23 Z m 9.9843754,0 C 12.617689,23 12,23.624791 12,24.400391 v 4.199218 C 12,29.375209 12.617689,30 13.384766,30 H 28.615234 C 29.382311,30 30,29.375209 30,28.599609 V 24.400391 C 30,23.624791 29.382311,23 28.615234,23 Z"/>
 <rect style="fill:#1e7ddc" width="7" height="7" x="2" y="12" rx="1.4" ry="1.4"/>
 <rect style="fill:#1e7ddc" width="18" height="7" x="12" y="12" rx="1.385" ry="1.4"/>
 <rect style="fill:#33bfff" width="7" height="7" x="2" y="2" rx="1.4" ry="1.4"/>
 <rect style="fill:#33bfff" width="18" height="7" x="12" y="2" rx="1.385" ry="1.4"/>
 <rect style="fill:#4949b1" width="7" height="7" x="2" y="22" rx="1.4" ry="1.4"/>
 <rect style="fill:#4949b1" width="18" height="7" x="12" y="22" rx="1.385" ry="1.4"/>
 <path style="opacity:0.1;fill:#ffffff" d="M 3.4003906 2 C 2.6247906 2 2 2.6247906 2 3.4003906 L 2 4.4003906 C 2 3.6247906 2.6247906 3 3.4003906 3 L 7.5996094 3 C 8.3752094 3 9 3.6247906 9 4.4003906 L 9 3.4003906 C 9 2.6247906 8.3752094 2 7.5996094 2 L 3.4003906 2 z M 13.384766 2 C 12.617689 2 12 2.6247906 12 3.4003906 L 12 4.4003906 C 12 3.6247906 12.617689 3 13.384766 3 L 28.615234 3 C 29.382311 3 30 3.6247906 30 4.4003906 L 30 3.4003906 C 30 2.6247906 29.382311 2 28.615234 2 L 13.384766 2 z M 3.4003906 12 C 2.6247906 12 2 12.624791 2 13.400391 L 2 14.400391 C 2 13.624791 2.6247906 13 3.4003906 13 L 7.5996094 13 C 8.3752094 13 9 13.624791 9 14.400391 L 9 13.400391 C 9 12.624791 8.3752094 12 7.5996094 12 L 3.4003906 12 z M 13.384766 12 C 12.617689 12 12 12.624791 12 13.400391 L 12 14.400391 C 12 13.624791 12.617689 13 13.384766 13 L 28.615234 13 C 29.382311 13 30 13.624791 30 14.400391 L 30 13.400391 C 30 12.624791 29.382311 12 28.615234 12 L 13.384766 12 z M 3.4003906 22 C 2.6247906 22 2 22.624791 2 23.400391 L 2 24.400391 C 2 23.624791 2.6247906 23 3.4003906 23 L 7.5996094 23 C 8.3752094 23 9 23.624791 9 24.400391 L 9 23.400391 C 9 22.624791 8.3752094 22 7.5996094 22 L 3.4003906 22 z M 13.384766 22 C 12.617689 22 12 22.624791 12 23.400391 L 12 24.400391 C 12 23.624791 12.617689 23 13.384766 23 L 28.615234 23 C 29.382311 23 30 23.624791 30 24.400391 L 30 23.400391 C 30 22.624791 29.382311 22 28.615234 22 L 13.384766 22 z"/>
</svg>

<svg xmlns="http://www.w3.org/2000/svg" width="32" height="32" version="1"><path style="opacity:.2" d="M3.4 3C2.625 3 2 3.625 2 4.4v4.2c0 .775.625 1.4 1.4 1.4h4.2C8.375 10 9 9.375 9 8.6V4.4C9 3.625 8.375 3 7.6 3zm9.985 0A1.39 1.39 0 0 0 12 4.4v4.2c0 .775.618 1.4 1.385 1.4h15.23A1.39 1.39 0 0 0 30 8.6V4.4c0-.775-.618-1.4-1.385-1.4zM3.4 13c-.775 0-1.4.625-1.4 1.4v4.2c0 .775.625 1.4 1.4 1.4h4.2c.775 0 1.4-.625 1.4-1.4v-4.2c0-.775-.625-1.4-1.4-1.4zm9.985 0A1.39 1.39 0 0 0 12 14.4v4.2c0 .775.618 1.4 1.385 1.4h15.23A1.39 1.39 0 0 0 30 18.6v-4.2c0-.775-.618-1.4-1.385-1.4zM3.4 23c-.775 0-1.4.625-1.4 1.4v4.2c0 .775.625 1.4 1.4 1.4h4.2c.775 0 1.4-.625 1.4-1.4v-4.2c0-.775-.625-1.4-1.4-1.4zm9.985 0A1.39 1.39 0 0 0 12 24.4v4.2c0 .775.618 1.4 1.385 1.4h15.23A1.39 1.39 0 0 0 30 28.6v-4.2c0-.775-.618-1.4-1.385-1.4z"/><rect style="fill:#1e7ddc" width="7" height="7" x="2" y="12" rx="1.4" ry="1.4"/><rect style="fill:#1e7ddc" width="18" height="7" x="12" y="12" rx="1.385" ry="1.4"/><rect style="fill:#33bfff" width="7" height="7" x="2" y="2" rx="1.4" ry="1.4"/><rect style="fill:#33bfff" width="18" height="7" x="12" y="2" rx="1.385" ry="1.4"/><rect style="fill:#4949b1" width="7" height="7" x="2" y="22" rx="1.4" ry="1.4"/><rect style="fill:#4949b1" width="18" height="7" x="12" y="22" rx="1.385" ry="1.4"/><path style="opacity:.1;fill:#fff" d="M3.4 2C2.625 2 2 2.625 2 3.4v1C2 3.625 2.625 3 3.4 3h4.2C8.375 3 9 3.625 9 4.4v-1C9 2.625 8.375 2 7.6 2H3.4zm9.985 0A1.39 1.39 0 0 0 12 3.4v1c0-.775.618-1.4 1.385-1.4h15.23A1.39 1.39 0 0 1 30 4.4v-1c0-.775-.618-1.4-1.385-1.4h-15.23zM3.4 12c-.775 0-1.4.625-1.4 1.4v1c0-.775.625-1.4 1.4-1.4h4.2c.775 0 1.4.625 1.4 1.4v-1c0-.775-.625-1.4-1.4-1.4H3.4zm9.985 0A1.39 1.39 0 0 0 12 13.4v1c0-.775.618-1.4 1.385-1.4h15.23A1.39 1.39 0 0 1 30 14.4v-1c0-.775-.618-1.4-1.385-1.4h-15.23zM3.4 22c-.775 0-1.4.625-1.4 1.4v1c0-.775.625-1.4 1.4-1.4h4.2c.775 0 1.4.625 1.4 1.4v-1c0-.775-.625-1.4-1.4-1.4H3.4zm9.985 0A1.39 1.39 0 0 0 12 23.4v1c0-.775.618-1.4 1.385-1.4h15.23A1.39 1.39 0 0 1 30 24.4v-1c0-.775-.618-1.4-1.385-1.4h-15.23z"/></svg>
